icons/default/Email.svg

<path
	d="M16.484 11.976L22.635 6.632V17.259L16.484 11.976ZM8.558 12.881L10.718 14.756C11.057 15.044 11.499 15.218 11.982 15.218H12.012C12.496 15.218 12.938 15.043 13.281 14.753L13.278 14.755L15.438 12.88L22.004 18.519H1.995L8.558 12.881ZM1.986 5.365H22.016L12.395 13.721C12.2868 13.8066 12.1529 13.8531 12.015 13.853H11.988C11.8496 13.8532 11.7152 13.8063 11.607 13.72L11.608 13.721L1.986 5.365ZM1.365 6.631L7.515 11.975L1.365 17.255V6.631ZM22.965 4.19C22.725 4.07 22.443 4 22.144 4H1.859C1.56916 4.00007 1.28331 4.06751 1.024 4.197L1.035 4.192C0.724573 4.34511 0.463148 4.58198 0.280254 4.87585C0.0973606 5.16971 0.000287348 5.50887 0 5.855V18.027C0.000529404 18.5196 0.196452 18.9919 0.54478 19.3402C0.893108 19.6885 1.36539 19.8845 1.858 19.885H22.141C22.6336 19.8845 23.1059 19.6885 23.4542 19.3402C23.8025 18.9919 23.9985 18.5196 23.999 18.027V5.855C23.999 5.128 23.58 4.498 22.97 4.195L22.959 4.19H22.965Z"
	fill="black" />

<path d="m16.484 11.976 6.151-5.344v10.627l-6.151-5.283Zm-7.926.905 2.16 1.875c.339.288.781.462 1.264.462h.03c.484 0 .926-.175 1.269-.465l-.003.002 2.16-1.875 6.566 5.639H1.995l6.563-5.638ZM1.986 5.365h20.03l-9.621 8.356a.612.612 0 0 1-.38.132h-.027a.61.61 0 0 1-.381-.133l.001.001-9.622-8.356Zm-.621 1.266 6.15 5.344-6.15 5.28V6.631Zm21.6-2.441c-.24-.12-.522-.19-.821-.19H1.859c-.29 0-.576.068-.835.197l.011-.005A1.856 1.856 0 0 0 0 5.855v12.172a1.86 1.86 0 0 0 1.858 1.858h20.283a1.86 1.86 0 0 0 1.858-1.858V5.855c0-.727-.419-1.357-1.029-1.66l-.011-.005h.006Z"/>
